X: 17
T: Tamborin Dance
%%VWML:Skillerns1780-2277i-p9-0
F:http://www.vwml.org/record/Skillerns1780/2277i/p9
%R: march, reel
B: "Twenty Four Country Dances for the Year 1780", Thomas Skillern, ed. p.9 #1
F: http://www.vwml.org/browse/browse-collections-dance-tune-books/browse-skillerns1780#
Z: 2014 John Chambers <jc:trillian.mit.edu>
M: C
L: 1/8
K: D
[f2A2D2][f2A2D2] [f3A3D3]a | gfed c/d/e/c/ A2 |\
dA fe/d/ eA gf/e/ | fg/a/ gf f2e2 ::\
A>Bcd efgf | edcB B2^A2 |
f2 gf/e/ fb a/g/f/e/ | d2c2 B2z2 |\
[f2A2D2][f2A2D2] [f3A3D3]a | gfed c/d/e/c/ A2 |\
dA fe/d/ eA gf/e/ | fe/d/ Ac d2D2 :|
W:
W:First four Cu. pas Rigodon Chassee to each others
W:side & Right hands across .|. the same back again :|.
W:four first Cu. Promenade round .|: Gent: & Ladys
W:lead off clapping Hands meet in the middle each
W:leading up his own Partner to their own place &
W:top Cu. casts off one Cu. :|:
%%endtext
T: London Assembly
%R: reel
B: "Twenty Four Country Dances for the Year 1780", Thomas Skillern, ed. p.9 #2
F: http://www.vwml.org/browse/browse-collections-dance-tune-books/browse-skillerns1780#
Z: 2014 John Chambers <jc:trillian.mit.edu>
M: 2/4
L: 1/16
K: F
c2 |\
fcBc dBAB | cAFA G3A |\
Bcde fcdB | cAGA F2 :|\
|: c2 |\
FAcf afef | gece d3e |
fdcd ec=Bc | fdc=B c2de |\
fc_Bc dBAB | cAFA G3A |\
Bcde fcdB | cAGA F2 :|
W:
W:  Cast down one Cu. & lead round the
W:bottom .|. Cast up one Cu. to the top & lead
W:thro' the 2d into your own places :|. Cross
W:over two Cu. lead up & foot out the Time
W:Cast off one Cu. .|: Hands four round with
W:the bottom & Right & Left with the top :|:

